illustfolio3/dist/images/compare_profile.svg

<svg width="40" height="40" viewBox="0 0 40 40" fill="none" xmlns="http://www.w3.org/2000/svg">
<mask id="mask0_1636_370" style="mask-type:alpha" maskUnits="userSpaceOnUse" x="0" y="0" width="40" height="40">
<rect width="40" height="40" fill="#D9D9D9"/>
</mask>
<g mask="url(#mask0_1636_370)">
<path d="M30.2781 21.3886C30.6714 21.3886 31.0013 21.2551 31.2677 20.9882C31.5338 20.7209 31.6668 20.3898 31.6668 19.9948C31.6668 19.6001 31.5338 19.2708 31.2677 19.0069C31.0013 18.743 30.6714 18.6111 30.2781 18.6111H25.2781C24.8845 18.6111 24.5546 18.7446 24.2885 19.0115C24.0221 19.2787 23.8889 19.6098 23.8889 20.0048C23.8889 20.3996 24.0221 20.7289 24.2885 20.9928C24.5546 21.2566 24.8845 21.3886 25.2781 21.3886H30.2781ZM30.2781 16.3886C30.6714 16.3886 31.0013 16.2551 31.2677 15.9882C31.5338 15.7209 31.6668 15.3898 31.6668 14.9948C31.6668 14.6001 31.5338 14.2708 31.2677 14.0069C31.0013 13.743 30.6714 13.6111 30.2781 13.6111H25.2781C24.8845 13.6111 24.5546 13.7446 24.2885 14.0115C24.0221 14.2787 23.8889 14.6098 23.8889 15.0048C23.8889 15.3996 24.0221 15.7289 24.2885 15.9928C24.5546 16.2566 24.8845 16.3886 25.2781 16.3886H30.2781ZM15.0002 21.8332C13.9632 21.8332 13.0453 21.9234 12.2464 22.104C11.4475 22.2846 10.745 22.5693 10.1389 22.9582C9.57419 23.2823 9.13905 23.6794 8.8335 24.1494C8.52794 24.6194 8.37516 25.1251 8.37516 25.6665C8.37516 25.9523 8.47864 26.1904 8.68558 26.3807C8.89252 26.5712 9.14558 26.6665 9.44475 26.6665H20.5556C20.8547 26.6665 21.1078 26.5668 21.3147 26.3673C21.5217 26.1679 21.6252 25.9158 21.6252 25.6111C21.6252 25.1258 21.477 24.655 21.1806 24.1986C20.8845 23.7419 20.4539 23.3284 19.8889 22.9582C19.2778 22.5693 18.5695 22.2846 17.7639 22.104C16.9584 21.9234 16.0371 21.8332 15.0002 21.8332ZM14.9981 19.6111C15.8606 19.6111 16.5997 19.3039 17.2156 18.6894C17.8311 18.0753 18.1389 17.3369 18.1389 16.4744C18.1389 15.6116 17.8318 14.8725 17.2177 14.2569C16.6035 13.6411 15.865 13.3332 15.0022 13.3332C14.1397 13.3332 13.4006 13.6403 12.7847 14.2544C12.1692 14.8689 11.8614 15.6073 11.8614 16.4698C11.8614 17.3323 12.1685 18.0715 12.7827 18.6873C13.3968 19.3032 14.1353 19.6111 14.9981 19.6111ZM6.11141 33.3332C5.36141 33.3332 4.71086 33.0578 4.15975 32.5069C3.60891 31.9558 3.3335 31.3053 3.3335 30.5553V9.44442C3.3335 8.69442 3.60891 8.04387 4.15975 7.49275C4.71086 6.94192 5.36141 6.6665 6.11141 6.6665H33.8889C34.6389 6.6665 35.2895 6.94192 35.8406 7.49275C36.3914 8.04387 36.6668 8.69442 36.6668 9.44442V30.5553C36.6668 31.3053 36.3914 31.9558 35.8406 32.5069C35.2895 33.0578 34.6389 33.3332 33.8889 33.3332H6.11141ZM6.11141 30.5553H33.8889V9.44442H6.11141V30.5553Z" fill="#4B4B4B"/>
</g>
</svg>

<svg width="40" height="40" fill="none" xmlns="http://www.w3.org/2000/svg"><mask id="a" style="mask-type:alpha" maskUnits="userSpaceOnUse" x="0" y="0" width="40" height="40"><path fill="#D9D9D9" d="M0 0h40v40H0z"/></mask><g mask="url(#a)"><path d="M30.278 21.389c.393 0 .723-.134.99-.4.266-.268.399-.6.399-.994 0-.395-.133-.724-.4-.988a1.35 1.35 0 0 0-.989-.396h-5c-.393 0-.723.134-.99.4-.266.268-.4.599-.4.994s.134.724.4.988c.267.264.596.396.99.396h5Zm0-5c.393 0 .723-.134.99-.4.266-.268.399-.6.399-.994 0-.395-.133-.724-.4-.988a1.35 1.35 0 0 0-.989-.396h-5c-.393 0-.723.134-.99.4-.266.268-.4.599-.4.994s.134.724.4.988c.267.264.596.396.99.396h5ZM15 21.833c-1.037 0-1.955.09-2.754.271-.799.18-1.501.465-2.107.854-.565.324-1 .721-1.305 1.191a2.73 2.73 0 0 0-.459 1.517.93.93 0 0 0 .31.715c.208.19.46.285.76.285h11.11c.3 0 .553-.1.76-.299.207-.2.31-.451.31-.756 0-.485-.148-.956-.444-1.412-.297-.457-.727-.87-1.292-1.24-.611-.39-1.32-.674-2.125-.855-.806-.18-1.727-.27-2.764-.27Zm-.002-2.222c.863 0 1.602-.307 2.218-.922a3.017 3.017 0 0 0 .923-2.215c0-.862-.307-1.601-.921-2.217a3.017 3.017 0 0 0-2.216-.924c-.862 0-1.601.307-2.217.921a3.018 3.018 0 0 0-.924 2.216c0 .862.307 1.602.922 2.217a3.016 3.016 0 0 0 2.215.924ZM6.111 33.333c-.75 0-1.4-.275-1.951-.826-.551-.551-.827-1.202-.827-1.952V9.445c0-.75.276-1.401.827-1.952.55-.551 1.201-.827 1.951-.827H33.89c.75 0 1.4.276 1.952.827.55.55.826 1.201.826 1.951v21.111c0 .75-.276 1.4-.826 1.952-.552.55-1.202.826-1.952.826H6.11Zm0-2.778H33.89V9.445H6.11v21.11Z" fill="#4B4B4B"/></g></svg>
